src/assets/flickmotion.svg

<svg id="eOFly8NVtsr1" 
xmlns="http://www.w3.org/2000/svg" 
xmlns:xlink="http://www.w3.org/1999/xlink" 
viewBox="0 0 131 40" 
shape-rendering="geometricPrecision" 
text-rendering="geometricPrecision"><defs><linearGradient id="eOFly8NVtsr2-fill" x1="-12.83168" y1="4.6098" x2="16.6078" y2="-5.5114" 
spreadMethod="pad" 
gradientUnits="userSpaceOnUse"
 gradientTransform="translate(0 0)"><stop id="eOFly8NVtsr2-fill-0" 
 offset="0%"
  stop-color="#f89e00"/><stop id="eOFly8NVtsr2-fill-1" 
  offset="100%" stop-color="#da2f68"/></linearGradient><linearGradient id="eOFly8NVtsr5-fill" x1="35.4961" y1="26.2198" x2="124.453" y2="23.9271" 
  spreadMethod="pad" gradientUnits="userSpaceOnUse" gradientTransform="translate(0 0)"><stop id="eOFly8NVtsr5-fill-0" offset="0%" stop-color="#f89e00"/><stop 
  id="eOFly8NVtsr5-fill-1" offset="100%" stop-color="#da2f68"/></linearGradient></defs><circle r="13.5" transform="translate(17.5 19.5)" 
  fill="url(#eOFly8NVtsr2-fill)"/><path d="M10.4286,15.1351C14.6075,14.0893,18.7766,13.046,22.9559,12c.2193.848.4364,1.6879.6559,2.5371-3.2632.8166-6.5211,1.6321-9.7789,2.4475.0007.0052.0013.0103.0021.0155h10.0878c.0017.0369.0046.0667.0046.0968.0002,2.1909.0013,4.382-.0004,6.5729-.001,1.2235-1.0098,2.2627-2.2476,2.3198-.1205.0056-.2413.009-.362.009-2.6342.0006-5.2684.0009-7.9024,0-.6584-.0002-1.2336-.2197-1.7036-.6731-.4278-.4129-.67-.9192-.7071-1.5129-.0074-.1185-.0097-.2374-.0097-.3561-.0006-1.9376-.0015-3.8751.0013-5.8125.0004-.2017-.0221-.3961-.0746-.5918-.1646-.6127-.3192-1.2278-.4775-1.8422-.0053-.0206-.0085-.0418-.0152-.0749Zm1.1763,4.4925v.1016c0,1.3083-.0002,2.6167.0008,3.9249c0,.0715.0063.1436.0171.2144.1388.905.8776,1.5298,1.8077,1.5298c2.6658,0,5.3317,0,7.9976-.0003.073,0,.1461-.0034.2188-.0087.9514-.0682,1.6698-.8288,1.6698-1.7683c0-1.2928,0-2.5853,0-3.8781v-.1153h-11.7118Zm1.8656-2.024c.0201.0321.0319.0532.0457.0727.2999.4256.6009.8504.8985,1.2776.0348.0499.0689.0698.1306.0693.3591-.0029.7182-.0014,1.0772-.0017.0271,0,.0543-.0038.0848-.0062-.0067-.0173-.0082-.0271-.0134-.0344-.3115-.444-.6225-.8886-.9373-1.3305-.0187-.0263-.0672-.0442-.1023-.0451-.1938-.0043-.3877-.0021-.5815-.0021-.1958,0-.3919,0-.6025,0l.0002.0004Zm5.1327,1.4182c-.0219-.036-.0336-.058-.0477-.0781-.3003-.4262-.6019-.8514-.9003-1.2789-.0334-.0477-.0679-.0627-.1244-.0625-.3627.0023-.7255.0011-1.0882.0013-.0236,0-.0473.0023-.0824.0041.017.0263.0263.0417.0364.0562.2759.3933.5599.7813.8238,1.1823.0945.1435.1977.1858.3634.1794.3331-.013.667-.0039,1.0192-.0039l.0002.0001Zm.6411-1.4182c.0208.0331.0324.0539.046.0735.3003.4259.6019.851.8997,1.2784.0353.0509.0714.068.1317.0675.3562-.0025.7124-.0012,1.0686-.0015.0277,0,.0552-.0034.0911-.0057-.0105-.0212-.0155-.0355-.0237-.0473-.3083-.4395-.6162-.8792-.9275-1.3166-.0188-.0263-.0661-.0457-.1005-.0464-.2065-.0043-.4134-.0021-.6202-.0021-.1832,0-.3665,0-.5652,0v.0002Zm1.8521-3.0594c-.0207-.0214-.0285-.0312-.0378-.0392-.411-.3526-.8217-.7057-1.2346-1.0562-.0208-.0176-.0635-.0251-.0912-.0184-.3694.0896-.738.1828-1.1069.2752-.0135.0034-.0259.0103-.0607.0242.0296.0192.0468.0278.0609.0398.3521.3004.7111.5936,1.0521.9057.1418.1298.2659.1749.457.1153.3104-.0969.6307-.1634.9612-.2464Zm-5.5978,1.4011c-.015-.0195-.0208-.0306-.0295-.0383-.4044-.345-.81-.6885-1.2119-1.0362-.05-.0432-.0889-.0499-.1508-.0338-.3003.0783-.6021.1508-.9031.2258-.0695.0173-.1384.0362-.226.0593.0988.0851.184.1582.2689.2312.327.2808.6533.5624.9824.8407.0286.0243.0804.0455.1138.0376.3818-.0909.7622-.1876,1.1562-.2863Zm.2875-1.5284c.0105.0197.0121.0266.0165.0302.4129.3548.8252.7102,1.241,1.0618.0267.0225.0832.0276.1204.0187.3482-.0834.6951-.1714,1.0423-.2586.0287-.0071.0564-.0173.0966-.0297-.411-.3519-.8124-.6908-1.2068-1.0371-.0831-.0729-.156-.0875-.2551-.0511-.0677.025-.1408.0359-.2115.0537-.2787.0701-.5574.1401-.8434.2123v-.0002Zm-4.1766,4.5993h1.2055c-.0008-.0114.0009-.0188-.0019-.0229-.3169-.4515-.6338-.903-.9524-1.3536-.0122-.0173-.0384-.0329-.0592-.0344-.0622-.0045-.125-.0017-.1918-.0017v1.4126h-.0002Zm-.0863-2.076c.3971-.0995.7848-.1966,1.1977-.3001-.0355-.0259-.0542-.0376-.0708-.0518-.3807-.3244-.7612-.649-1.1414-.9737-.127-.1084-.1726-.1131-.336-.0278.1161.448.2323.8972.3505,1.3536v-.0002Zm10.6057.6668c.3116.4423.6176.8675.9116,1.3006.0733.108.1519.1351.2701.1034v-1.4042h-1.1817v.0002Zm.3837-4.8745c-.3823.0962-.7538.1895-1.1255.2829l-.0088.0266c.0164.01.0344.0181.0487.0303.3782.3221.7598.6402,1.1311.9697.0981.0869.1819.1189.3052.0471-.1159-.4483-.2327-.9-.3509-1.3568l.0002.0002Z" fill="#fff"/><path d="M16.3951,20.7748c.0201.0094.0489.0205.0756.0355.8027.4553,1.6053.9109,2.4078,1.3664.1457.0826.2913.1654.4368.2485.1099.0629.1103.1468-.001.2101-.8159.4641-1.6322.9275-2.4482,1.391-.132.075-.2635.1505-.3962.2243-.1137.0633-.1872.0238-.1872-.1026-.0006-1.0799,0-2.1599-.0008-3.2399c0-.071.0208-.1222.1132-.1333Z" fill="#fff"/><path d="M51.8794,9.7h4.234" clip-rule="evenodd" fill="url(#eOFly8NVtsr5-fill)" fill-rule="evenodd"/><rect width="3.707051" height="27" rx="0" ry="0" transform="matrix(.999921-.012581 0.012581 0.999921 36.029584 6.046637)" fill="#ec7328" stroke-width="0"/><rect width="3.707051" height="27" rx="0" ry="0" transform="matrix(-.013189-.999913 0.391156-.00516 39.44556 9.7)" fill="#ff7000" stroke-width="0"/><rect width="3.707051" height="27" rx="0" ry="0" transform="matrix(.001915-.999998 0.391189 0.000749 53.025875 32.903396)" fill="#ff7000" stroke-width="0"/><rect width="3.707051" height="27" rx="0" ry="0" transform="matrix(-.013189-.999913 0.392992-.005184 36.418152 20.7748)" fill="#ff7000" stroke-width="0"/><rect width="3.707051" height="27" rx="0" ry="0" transform="translate(51.172349 5.903396)" fill="#ff7000" stroke-width="0"/><rect width="3.707051" height="27" rx="0" ry="0" transform="translate(87.352408 5.923618)" fill="#ff7000" stroke-width="0"/><g transform="translate(.000001 0)"><g transform="translate(.000001 0.000001)"><g transform="translate(.000001 0.000001)"><path d="M75.43008,33.190535L66.154187,19.17164L75.43008,6c12.537944,5.79028,13.283565,18.396635,0,27v.190535Z" transform="matrix(.816638 0 0 1 35.074933 0.046635)" fill="#ff7000" stroke-width="0"/></g></g></g><g><rect width="3.707051" height="27" rx="0" ry="0" transform="translate(64.646475 6)" fill="#ff7000" stroke-width="0"/></g><g transform="matrix(1.382349 0 0 0.995666-26.733277 0.22586)"><g><g><g transform="matrix(1.028678 0 0 1.017857-2.091099-.348222)"><g transform="matrix(1.012732 0 0 0.999999-.929349 0.00002)"><g><path d="M66.971492,32.725351v-26.639681h12.043328c-13.04538,3.2898-13.04538,23.01092,0,26.75229l-12.043328-.112609Z" transform="translate(2.777592 0)" fill="#ff7000" stroke-width="0"/></g></g></g></g></g></g></svg>

<svg width="131" height="40" viewBox="0 0 131 40" fill="none" xmlns="http://www.w3.org/2000/svg">
<circle cx="17.5" cy="19.5" r="13.5" fill="url(#paint0_linear_425_166)"/>
<path d="M10.4286 15.1351C14.6075 14.0893 18.7766 13.046 22.9559 12C23.1752 12.848 23.3923 13.6879 23.6118 14.5371C20.3486 15.3537 17.0907 16.1692 13.8329 16.9846C13.8336 16.9898 13.8342 16.9949 13.835 17.0001H23.9228C23.9245 17.037 23.9274 17.0668 23.9274 17.0969C23.9276 19.2878 23.9287 21.4789 23.927 23.6698C23.926 24.8933 22.9172 25.9325 21.6794 25.9896C21.5589 25.9952 21.4381 25.9986 21.3174 25.9986C18.6832 25.9992 16.049 25.9995 13.415 25.9986C12.7566 25.9984 12.1814 25.7789 11.7114 25.3255C11.2836 24.9126 11.0414 24.4063 11.0043 23.8126C10.9969 23.6941 10.9946 23.5752 10.9946 23.4565C10.994 21.5189 10.9931 19.5814 10.9959 17.644C10.9963 17.4423 10.9738 17.2479 10.9213 17.0522C10.7567 16.4395 10.6021 15.8244 10.4438 15.21C10.4385 15.1894 10.4353 15.1682 10.4286 15.1351ZM11.6049 19.6276V19.7292C11.6049 21.0375 11.6047 22.3459 11.6057 23.6541C11.6057 23.7256 11.612 23.7977 11.6228 23.8685C11.7616 24.7735 12.5004 25.3983 13.4305 25.3983C16.0963 25.3983 18.7622 25.3983 21.4281 25.398C21.5011 25.398 21.5742 25.3946 21.6469 25.3893C22.5983 25.3211 23.3167 24.5605 23.3167 23.621C23.3167 22.3282 23.3167 21.0357 23.3167 19.7429V19.6276H11.6049ZM13.4705 17.6036C13.4906 17.6357 13.5024 17.6568 13.5162 17.6763C13.8161 18.1019 14.1171 18.5267 14.4147 18.9539C14.4495 19.0038 14.4836 19.0237 14.5453 19.0232C14.9044 19.0203 15.2635 19.0218 15.6225 19.0215C15.6496 19.0215 15.6768 19.0177 15.7073 19.0153C15.7006 18.998 15.6991 18.9882 15.6939 18.9809C15.3824 18.5369 15.0714 18.0923 14.7566 17.6504C14.7379 17.6241 14.6894 17.6062 14.6543 17.6053C14.4605 17.601 14.2666 17.6032 14.0728 17.6032C13.877 17.6032 13.6809 17.6032 13.4703 17.6032L13.4705 17.6036ZM18.6032 19.0218C18.5813 18.9858 18.5696 18.9638 18.5555 18.9437C18.2552 18.5175 17.9536 18.0923 17.6552 17.6648C17.6218 17.6171 17.5873 17.6021 17.5308 17.6023C17.1681 17.6046 16.8053 17.6034 16.4426 17.6036C16.419 17.6036 16.3953 17.6059 16.3602 17.6077C16.3772 17.634 16.3865 17.6494 16.3966 17.6639C16.6725 18.0572 16.9565 18.4452 17.2204 18.8462C17.3149 18.9897 17.4181 19.032 17.5838 19.0256C17.9169 19.0126 18.2508 19.0217 18.603 19.0217L18.6032 19.0218ZM19.2443 17.6036C19.2651 17.6367 19.2767 17.6575 19.2903 17.6771C19.5906 18.103 19.8922 18.5281 20.19 18.9555C20.2253 19.0064 20.2614 19.0235 20.3217 19.023C20.6779 19.0205 21.0341 19.0218 21.3903 19.0215C21.418 19.0215 21.4455 19.0181 21.4814 19.0158C21.4709 18.9946 21.4659 18.9803 21.4577 18.9685C21.1494 18.529 20.8415 18.0893 20.5302 17.6519C20.5114 17.6256 20.4641 17.6062 20.4297 17.6055C20.2232 17.6012 20.0163 17.6034 19.8095 17.6034C19.6263 17.6034 19.443 17.6034 19.2443 17.6034V17.6036ZM21.0964 14.5442C21.0757 14.5228 21.0679 14.513 21.0586 14.505C20.6476 14.1524 20.2369 13.7993 19.824 13.4488C19.8032 13.4312 19.7605 13.4237 19.7328 13.4304C19.3634 13.52 18.9948 13.6132 18.6259 13.7056C18.6124 13.709 18.6 13.7159 18.5652 13.7298C18.5948 13.749 18.612 13.7576 18.6261 13.7696C18.9782 14.07 19.3372 14.3632 19.6782 14.6753C19.82 14.8051 19.9441 14.8502 20.1352 14.7906C20.4456 14.6937 20.7659 14.6272 21.0964 14.5442ZM15.4986 15.9453C15.4836 15.9258 15.4778 15.9147 15.4691 15.907C15.0647 15.562 14.6591 15.2185 14.2572 14.8708C14.2072 14.8276 14.1683 14.8209 14.1064 14.837C13.8061 14.9153 13.5043 14.9878 13.2033 15.0628C13.1338 15.0801 13.0649 15.099 12.9773 15.1221C13.0761 15.2072 13.1613 15.2803 13.2462 15.3533C13.5732 15.6341 13.8995 15.9157 14.2286 16.194C14.2572 16.2183 14.309 16.2395 14.3424 16.2316C14.7242 16.1407 15.1046 16.044 15.4986 15.9453ZM15.7861 14.4169C15.7966 14.4366 15.7982 14.4435 15.8026 14.4471C16.2155 14.8019 16.6278 15.1573 17.0436 15.5089C17.0703 15.5314 17.1268 15.5365 17.164 15.5276C17.5122 15.4442 17.8591 15.3562 18.2063 15.269C18.235 15.2619 18.2627 15.2517 18.3029 15.2393C17.8919 14.8874 17.4905 14.5485 17.0961 14.2022C17.013 14.1293 16.9401 14.1147 16.841 14.1511C16.7733 14.1761 16.7002 14.187 16.6295 14.2048C16.3508 14.2749 16.0721 14.3449 15.7861 14.4171V14.4169ZM11.6095 19.0162H12.815C12.8142 19.0048 12.8159 18.9974 12.8131 18.9933C12.4962 18.5418 12.1793 18.0903 11.8607 17.6397C11.8485 17.6224 11.8223 17.6068 11.8015 17.6053C11.7393 17.6008 11.6765 17.6036 11.6097 17.6036V19.0162H11.6095ZM11.5232 16.9402C11.9203 16.8407 12.308 16.7436 12.7209 16.6401C12.6854 16.6142 12.6667 16.6025 12.6501 16.5883C12.2694 16.2639 11.8889 15.9393 11.5087 15.6146C11.3817 15.5062 11.3361 15.5015 11.1727 15.5868C11.2888 16.0348 11.405 16.484 11.5232 16.9404V16.9402ZM22.1289 17.607C22.4405 18.0493 22.7465 18.4745 23.0405 18.9076C23.1138 19.0156 23.1924 19.0427 23.3106 19.011V17.6068H22.1289V17.607ZM22.5126 12.7325C22.1303 12.8287 21.7588 12.922 21.3871 13.0154L21.3783 13.042C21.3947 13.052 21.4127 13.0601 21.427 13.0723C21.8052 13.3944 22.1868 13.7125 22.5581 14.042C22.6562 14.1289 22.74 14.1609 22.8633 14.0891C22.7474 13.6408 22.6306 13.1891 22.5124 12.7323L22.5126 12.7325Z" fill="white"/>
<path d="M16.3951 20.7748C16.4152 20.7842 16.444 20.7953 16.4707 20.8103C17.2734 21.2656 18.076 21.7212 18.8785 22.1767C19.0242 22.2593 19.1698 22.3421 19.3153 22.4252C19.4252 22.4881 19.4256 22.572 19.3143 22.6353C18.4984 23.0994 17.6821 23.5628 16.8661 24.0263C16.7341 24.1013 16.6026 24.1768 16.4699 24.2506C16.3562 24.3139 16.2827 24.2744 16.2827 24.148C16.2821 23.0681 16.2827 21.9881 16.2819 20.9081C16.2819 20.8371 16.3027 20.7859 16.3951 20.7748Z" fill="white"/>
<path fill-rule="evenodd" clip-rule="evenodd" d="M96.6953 21V14.601H101.335V21H96.6953ZM91.2058 21L94.0137 14.601H88.9387L86.7685 21H91.2058ZM86.0902 23H90.3283L87.2567 30H83.6027L80.6761 23H85.0903L85.5853 24.4886L86.0902 23ZM84.4253 21L82.2977 14.601H77.1647L79.84 21H84.4253ZM76.1784 21C76.0322 19.9674 75.7039 19.0234 75.1934 18.168C74.478 16.9693 73.492 16.022 72.2354 15.326C70.998 14.63 69.577 14.282 67.9724 14.282C66.3677 14.282 64.937 14.63 63.6804 15.326C62.443 16.022 61.457 16.9693 60.7224 18.168C60.2119 19.0234 59.8836 19.9674 59.7374 21H64.5159C64.5873 20.728 64.6858 20.4703 64.8114 20.227C65.1207 19.6083 65.546 19.125 66.0874 18.777C66.648 18.429 67.2764 18.255 67.9724 18.255C68.6684 18.255 69.287 18.429 69.8284 18.777C70.3697 19.125 70.795 19.6083 71.1044 20.227C71.23 20.4703 71.3285 20.728 71.3999 21H76.1784ZM76.24 23H71.5077C71.4494 23.4887 71.315 23.937 71.1044 24.345C70.795 24.9443 70.3697 25.418 69.8284 25.766C69.287 26.114 68.6684 26.288 67.9724 26.288C67.2764 26.288 66.648 26.114 66.0874 25.766C65.546 25.418 65.1207 24.9443 64.8114 24.345C64.6008 23.937 64.4664 23.4887 64.4081 23H59.6757C59.7702 24.2584 60.1191 25.3931 60.7224 26.404C61.457 27.6027 62.443 28.55 63.6804 29.246C64.937 29.942 66.3677 30.29 67.9724 30.29C69.577 30.29 70.998 29.942 72.2354 29.246C73.492 28.55 74.478 27.6027 75.1934 26.404C75.7967 25.3931 76.1455 24.2584 76.24 23ZM96.6953 23H101.335V30H96.6953V23ZM109.185 23L104.158 30H109.639L112.202 25.4969L115.178 30H120.688L115.691 23H109.185ZM115.94 21L120.398 14.601H114.917L112.685 18.8095L109.871 14.601H104.303L108.985 21H115.94ZM99.0153 11.556C98.1453 11.556 97.459 11.353 96.9563 10.947C96.473 10.5217 96.2313 9.92233 96.2313 9.149C96.2313 8.453 96.4826 7.88266 96.9853 7.438C97.488 6.99333 98.1646 6.771 99.0153 6.771C99.8853 6.771 100.562 6.98366 101.045 7.409C101.529 7.815 101.77 8.395 101.77 9.149C101.77 9.86433 101.519 10.4443 101.016 10.889C100.533 11.3337 99.866 11.556 99.0153 11.556ZM35.7554 30V9.7H40.1634L45.9801 19.1664L51.8794 9.7H56.1134V30H51.3284V23.678C51.3284 21.938 51.3671 20.372 51.4444 18.98C51.4727 18.5729 51.5059 18.1666 51.5441 17.7611L46.8334 25.07H44.9194L40.3272 17.8433C40.3539 18.1716 40.3767 18.5022 40.3954 18.835C40.4921 20.1883 40.5404 21.8027 40.5404 23.678V30H35.7554Z" fill="url(#paint1_linear_425_166)"/>
<defs>
<linearGradient id="paint0_linear_425_166" x1="4.66832" y1="24.1098" x2="34.1078" y2="13.9886" gradientUnits="userSpaceOnUse">
<stop stop-color="#F89E00"/>
<stop offset="1" stop-color="#DA2F68"/>
</linearGradient>
<linearGradient id="paint1_linear_425_166" x1="35.4961" y1="26.2198" x2="124.453" y2="23.9271" gradientUnits="userSpaceOnUse">
<stop stop-color="#F89E00"/>
<stop offset="1" stop-color="#DA2F68"/>
</linearGradient>
</defs>
</svg>
